X: 11683
M: C
L: 1/16
K: A
e2 |\
d3c {c}B3A ce3 c4 | d3c{c}B3A GB3 E4 |\
d3c{c}B3A ce3a3g | {g}f3ef3g a4 A2 :|\
e2 |\
a3e agfe a3ec3A | | G3BE3B G3BE3e |
a3e agfe a3ec3A | G3BE3(G A4 A3)e |\
a3e agfe a3ec3A | G3BE3B G3BE3B |\


